X: 1
T: the Daggs of Craighouse
R: jig
B: RSCDS Leaflet
Z: 1997 by John Chambers <jc:trillian.mit.edu>
M: 6/8
L: 1/8
K: A
E \
| "A"A2c E2A | cBA e3 | "D"f2d "A"e2c | "B7"B>cA "E7"BGE \
| "A"A2c E2A | cBA e3 | "D"f2d "A"e2c | "E7"B>cB "A"A2 :|
G/A \
| "E7"B2E E>FE | "A"ABc e3 | "D"f2d "A"e2c | "B7"B>cA "E7"B>GA \
| "E7"BGE E>FE | "A"ABc e3 | "D"f2d "A"e2c | "E7"B>cB "A"A3 |
| "E7"BGE E>FE | "A"ABc e3 | "D"f>ed "A"e>dc | "B7"B>cA "E7"BGE \
| "A"A2c E2A | cBA e3 | "D"f2d "A"e2c | "E7"B>cB "A"A2 |]
